src/assets/home/homecover/rings.svg

<svg fill="none" height="221" viewBox="0 0 414 221" width="414" xmlns="http://www.w3.org/2000/svg" xmlns:xlink="http://www.w3.org/1999/xlink"><pattern id="a" height="1" patternContentUnits="objectBoundingBox" width="1"><image height="37" transform="scale(.0416667 .027027)" width="24" xlink:href="data:image/png;base64,iVBORw0KGgoAAAANSUhEUgAAABgAAAAlCAYAAABYkymLAAACZElEQVRIibXX34tVVRjG8c8ZJ2381ZSFQz8wkyLCQDGVLjIqq5v0Ki9EgiCim/6P/o6uuyoS8kYUQcxUAi0qKSVtROkXaIyV4+PF2hNy2uectcczD2zYZ+29nu9+1/uud+/TS6JS92M9VuBn3KyZNFnrjik8g3X4tRYw0QGwEtuwGw/UTuoSwSo8i+cbWJW6RPAgNuBhrFkKwGMNYApPqYy+C2ADNipLtVmpqLEBppUKoqz/i3h8XIAeXsHWu8a24IlxAe7D60qJLmga2zEzDsALjXl/Ut/Cq/cKeBQfKLXfr+fwEh5aLGA19ipPOjXgnt3Yryxju5K0HRNJDiQ5n9H6OsmuJL02rzbzFUneS3KuwjxJbic5nGT7KMBEks1JPkryU6X5gm4lOZTkzcbnP99JPI1HlErZ1azr9LDEtWgZ3lC67CYcwkVK6e1QqmE/1nY07tdOpaVswSe4PYnruIbZBljdigdoBi/jAuZ7SVZjOZ5UyvJ9pf4Xo2s4gs9wEv/L+kySd5J8tYgkH0/yYZJNSZa3VdHC0UuyJ8nRSvO5poL2JVnb7zdoo0myN8k3FYAjSV5LMtnmMwwwleTdJFeHmJ9M8naSZYN8hvWiORxukvZPy/W/cBCfYn6QyahuOouP8X3LtYP4HP8OMxgFuIWj+K5vfA5f4PSI+VUvnJuN0S93jZ3F+Yq5VYB5nMC3ze8bytP/OC4AnFO2PiW5x3BlnIDf8HtzfgOXKud1+vBa+Jqexd9LAfhD6fE/LBXgKs40gLaNd8+AKzilYwRd/h9cxpdKJNURdAH8qeTguiG9p193AFuoocqiARjPAAAAAElFTkSuQmCC"/></pattern><path clip-rule="evenodd" d="m229.331 46.1722c109.419 48.4671 185.58 116.0888 170.11 151.0378-15.471 34.949-116.713 23.992-226.132-24.474-109.4194-48.466-185.5807-116.0894-170.11034-151.0382 15.47034-34.9489 116.71534-23.99139 226.13234 24.4744z" fill-rule="evenodd" stroke="#e4e4e4" stroke-width="1.267"/><path clip-rule="evenodd" d="m205.325 60.775c82.561-39.4973 159.715-50.1387 172.323-23.7703 12.607 26.3684-44.105 79.7723-126.671 119.2723-82.567 39.499-159.7195 50.142-172.3283 23.77-12.6087-26.372 44.1043-79.77 126.6763-119.272z" fill-rule="evenodd" stroke="#e4e4e4" stroke-width="1.267"/><path d="m383.084 173.459h30.8252v47.5407h-30.8252z" fill="url(#a)"/></svg>

<svg width="414" height="221" viewBox="0 0 414 221" fill="none" xmlns="http://www.w3.org/2000/svg" xmlns:xlink="http://www.w3.org/1999/xlink">
<path fill-rule="evenodd" clip-rule="evenodd" d="M229.331 46.1722C338.75 94.6393 414.911 162.261 399.441 197.21C383.97 232.159 282.728 221.202 173.309 172.736C63.8896 124.27 -12.2717 56.6466 3.19866 21.6978C18.669 -13.2511 119.914 -2.29359 229.331 46.1722Z" stroke="#E4E4E4" stroke-width="1.267"/>
<path fill-rule="evenodd" clip-rule="evenodd" d="M205.325 60.775C287.886 21.2777 365.04 10.6363 377.648 37.0047C390.255 63.3731 333.543 116.777 250.977 156.277C168.41 195.776 91.2575 206.419 78.6487 180.047C66.04 153.675 122.753 100.277 205.325 60.775Z" stroke="#E4E4E4" stroke-width="1.267"/>
<rect x="383.084" y="173.459" width="30.8252" height="47.5407" fill="url(#pattern0)"/>
<defs>
<pattern id="pattern0" patternContentUnits="objectBoundingBox" width="1" height="1">
<use xlink:href="#image0_362_7" transform="scale(0.0416667 0.027027)"/>
</pattern>
<image id="image0_362_7" width="24" height="37" xlink:href="data:image/png;base64,iVBORw0KGgoAAAANSUhEUgAAABgAAAAlCAYAAABYkymLAAACZElEQVRIibXX34tVVRjG8c8ZJ2381ZSFQz8wkyLCQDGVLjIqq5v0Ki9EgiCim/6P/o6uuyoS8kYUQcxUAi0qKSVtROkXaIyV4+PF2hNy2uectcczD2zYZ+29nu9+1/uud+/TS6JS92M9VuBn3KyZNFnrjik8g3X4tRYw0QGwEtuwGw/UTuoSwSo8i+cbWJW6RPAgNuBhrFkKwGMNYApPqYy+C2ADNipLtVmpqLEBppUKoqz/i3h8XIAeXsHWu8a24IlxAe7D60qJLmga2zEzDsALjXl/Ut/Cq/cKeBQfKLXfr+fwEh5aLGA19ipPOjXgnt3Yryxju5K0HRNJDiQ5n9H6OsmuJL02rzbzFUneS3KuwjxJbic5nGT7KMBEks1JPkryU6X5gm4lOZTkzcbnP99JPI1HlErZ1azr9LDEtWgZ3lC67CYcwkVK6e1QqmE/1nY07tdOpaVswSe4PYnruIbZBljdigdoBi/jAuZ7SVZjOZ5UyvJ9pf4Xo2s4gs9wEv/L+kySd5J8tYgkH0/yYZJNSZa3VdHC0UuyJ8nRSvO5poL2JVnb7zdoo0myN8k3FYAjSV5LMtnmMwwwleTdJFeHmJ9M8naSZYN8hvWiORxukvZPy/W/cBCfYn6QyahuOouP8X3LtYP4HP8OMxgFuIWj+K5vfA5f4PSI+VUvnJuN0S93jZ3F+Yq5VYB5nMC3ze8bytP/OC4AnFO2PiW5x3BlnIDf8HtzfgOXKud1+vBa+Jqexd9LAfhD6fE/LBXgKs40gLaNd8+AKzilYwRd/h9cxpdKJNURdAH8qeTguiG9p193AFuoocqiARjPAAAAAElFTkSuQmCC"/>
</defs>
</svg>
